X:1
T:“POPULARITY”
T:“POPULARITY”
T:March and Two Step.
T:By GEO. M. COHAN.
T:Copyright 1906 by F. A. Mills.
T:Copyright 1906 by F. A. Mills.
T:Copyright 1906 by F. A. Mills.
T:Copyright 1906 by F. A. Mills.
T:Copyright 1906 by F. A. Mills.
C:By GEO. M. COHAN.
Z:Copyright 1906 by F. A. Mills.
%%score { ( 1 3 ) | 2 }
L:1/8
Q:1/4=90
M:2/4
K:C
V:1 treble nm="Piano" snm="Pno."
V:3 treble 
V:2 bass 
V:1
"^Tempo di Marcia."!mf! [Bd]/[Bg][Bd]/ [Bg]2 | [^Ae]/[Ag][Ae]/ [Ag]2 | %2
 [Bf]/[Bg]/[Af]/[Ge]/ [Fd]((([DF-c] | [DFB]))) z !>![GBfg] |!f! (3G/A/(B/ |: %5
!mf! !>![Ec])[eg][^d^f][=d=f] | [Gce][E^Gd][EAc][FB] | [^FA]/[Fd][FA]/ [Fd]2- | [Fd]A/B/ c/B/c/A/ | %9
 B/[Bg]B/ [Bg]2- | [Bg]d/e/ f/e/f/d/ | [ce]/g[ce]/ g[^Ae] | [Bd]/g[Bd]/ [Bg](3G/A/B/ | %13
 !>![Ec][eg][^d^f][=d=f] | [Gce][E^Gd][EAc][FB] | [^FA]/[Fd][FA]/ [Fd]2- | [Fd]A/B/ c/B/c/A/ | %17
 B/[Bg]B/ [Bg]2- | [Bg]d/e/ f/e/f/d/ | [ce]/g[ce]/ [Bd][Bg] |1 c!>!G!>![^FA]!>![=FGB] :|2 %21
 c z !trill(!TB2 |:!f! AA/B/ A/^G/A/B/ | [Ac]c/d/ c/B/c/d/ | [ce]([ce]/f/ [ce])[cea] | [Ace]4 | %26
 z ([Bd]/[ce]/ [df])[Bd] | z ([Ac]/[Bd]/ [ce])[Ac] | z ([^GB]/[Ac]/ [Bd])[GB] | %29
 [EAc][^DA] [=D^GB][Gde] | z A/B/ A/^G/A/B/ | [Ac]c/d/ c/B/c/d/ | [ce]([ce]/f/ [ce])[cea] | %33
 [Ace]4 | z ([Bd]/[ce]/ [df])[Bd] | [ce][EAc] [DBd][DB] | [Ec]/B/A [E^GB][EGe] |1 %37
 A{/^d}e{/d}e{/d}e :|2 A z [Aca] (3G/A/(B/ ||!mf! !>![Ec])[eg][^d^f][=d=f] | [Gce][E^Gd][EAc][FB] | %41
 [^FA]/[Fd][FA]/ [Fd]2- | [Fd]A/B/ c/B/c/A/ | B/[Bg]B/ [Bg]2- | [Bg]d/e/ f/e/f/d/ | %45
 [ce]/g[ce]/ g[^Ae] | [Bd]/g[Bd]/ [Bg](3G/A/B/ | !>![Ec][eg][^d^f][=d=f] | [Gce][E^Gd][EAc][FB] | %49
 [^FA]/[Fd][FA]/ [Fd]2- | [Fd]A/B/ c/B/c/A/ | B/[Bg]B/ [Bg]2- | [Bg]d/e/ f/e/f/d/ | %53
 [ce]/g[ce]/ [Bd][Bg] | c z !>![cec'] z || %55
[K:F]!f!"_Trio." [G,B,C]/[G,B,C][G,B,C]/ [G,B,^C][G,B,C] | %56
 [G,B,D]/[G,B,D][G,B,D]/ [G,B,^D][G,B,D] |!<(! [G,B,E][G,B,F][A,C^F][B,CG]!<)! | %58
!>(! [EBc]C[=B,D][_B,E]!>)! |:!p! F2 [EG][FA]- | [FA][F^G] [FA]2 | ^F4 | [C^FA]4 | %63
 [DG]2 [^FA][GB]- | [GB][DG] [D^FA]2 | G4 | F4 | E2 [DF][EG]- | [EG][E^F] [EG]2 | E4 | [B,EG]4 | %71
 F2 [EG][FA]- | [FA][EG] [DF]2 | [EG][E^F][EG][Ec]- |!<(! [Ec]C!<)!!>(![=B,D][_B,CE]!>)! | %75
 F2 [EG][FA]- | [FA][F^G] [FA]2 | ^F4 | [C^FA]4 | [DG]2 [^FA][GB]- | [GB][DG] [D^F]2 | G4- | %82
 G2 [B,F][B,FG] | [CFA]2 [FAc][DAd]- | [DAd][D^Fc] [DFA]2 | =F4 | G4 | F4- | F4- | F4- | %90
 F z !>![FAcf] |:!mf! (3(a/=b/^c'/) |"_l.h." d'd'/a/ c'c'/g/ | bb/f/ aa/f/ | %94
 g(3g/a/g/!<(! [df][deg]!<)! | [^cea] z z!>(! (3(a/=b/^c'/)!>)! |"_l.h." d'/e'/d'/a/ c'/e'/c'/g/ | %97
 b/c'/b/f/ a(3a/b/a/ | [d^g][dg] [dgd'][deg] | [^cea] z z [deb] | [^cea] z z [=c^da] | [cebc']4- | %102
!<(! [cebc']c[=Bd][_Bce]!<)! |:!f! [Acf]2 [Acg][Aca]- | [Aca][^Gf^g] [Afa]2 | [^F^f]4 | [Ac^fa]4 | %107
 [GBg]2 [A^fa][Bgb]- | [Bgb][Gg] [A^fa]2 | [Gg]4 | [Ff]4 | [Ece]2 [Fdf][Geg]- | %112
 [Geg][^Fe^f] [Geg]2 | [EBe]4 | [GBdg]4 | [Ff]2 [Geg][Afa]- | [Afa][Geg] [Fdf]2 | %117
 [Geg][^Fe^f][Geg][cec']- | [cec']c[=Bd][_Bce] | [Acf]2 [Acg][Aca]- | [Aca][^Gf^g] [Afa]2 | %121
 [^F^f]4 | [Ac^fa]4 | [GBg]2 [A^fa][Bgb]- | [Bgb][Gg] [A^fa]2 | [Gg]4- | [Gg]2 [FBf][GBg] | %127
 [Aca]2 [cac'][dad']- | [dad'] [c^fc']2 [Afa] | [=F=f]4 | [Gg]4 | f4- | f4- | f4- |1 %134
 f z !>![FAcf]2 :|2{/x-} f z !>![FAcf] z |] %136
V:2
 [G,B,F]3 [G,B,F] | [G,^A,^CE]3 [G,A,CE] | [G,,G,]3 (([_A,,_A,] | [G,,G,])) z !>![G,,,G,,] | %4
 [G,B,] |: !>![C,C][G,,G,][A,,A,][B,,B,] | [C,C][B,,B,][A,,A,][^G,,^G,] | %7
 [A,,A,][D,^F,C] [D,,D,][D,F,C] | [A,,A,][D,^F,C] [D,,D,][D,F,C] | E,[F,G,B,] G,,[F,G,B,] | %10
 E,[F,G,B,] G,,[F,G,B,] | C,[E,G,C] [C,G,][^C,G,] | E,[F,G,B,] G,,[F,G,B,] | %13
 !>![C,C][G,,G,][A,,A,][B,,B,] | [C,C][B,,B,][A,,A,][^G,,^G,] | [A,,A,][D,^F,C] [D,,D,][D,F,C] | %16
 [A,,A,][D,^F,C] [D,,D,][D,F,C] | E,[F,G,B,] G,,[F,G,B,] | E,[F,G,B,] G,,[F,G,B,] | %19
 G,,[E,G,C] G,,[F,G,B,] |1 [E,G,C]!>![E,E]!>![_E,_E]!>![D,D] :|2 [CE] z !>![E,^G,D]2 |: %22
 [A,,A,][E,A,C] [A,,A,][E,A,C] | [F,,F,][F,A,C] [F,,F,][F,A,C] | [A,,A,][E,A,C] [E,,E,][E,A,C] | %25
 A,,!>![C,C]!>![B,,B,]!>![A,,A,] | !>![^G,,^G,]3 !>![E,,E,] | !>![A,,A,]3 !>![A,,A,] | %28
 [^G,,^G,][E,G,D] [E,,E,][E,G,D] | [A,,A,][F,,F,] [E,,E,]!>![E,,E,] | %30
 !>![A,,A,][E,A,C] [A,,A,][E,A,C] | [F,,F,][F,A,C] [F,,F,][F,A,C] | [A,,A,][E,A,C] [E,,E,][E,A,C] | %33
 A,,!>![C,C]!>![B,,B,]!>![A,,A,] | !>![^G,,^G,]3 !>![E,,E,] | !>![A,,A,][E,A,C] [F,,F,][F,A,B,] | %36
 [E,,E,][E,A,C] [E,,E,][E,^G,D] |1 [A,C]!>![E,,E,]!>![^F,,^F,]!>![G,,G,] :|2 %38
 [A,C] z [A,,A,][G,,G,] || !>![C,C][G,,G,][A,,A,][B,,B,] | [C,C][B,,B,][A,,A,][^G,,^G,] | %41
 [A,,A,][D,^F,C] [D,,D,][D,F,C] | [A,,A,][D,^F,C] [D,,D,][D,F,C] | E,[F,G,B,] G,,[F,G,B,] | %44
 E,[F,G,B,] G,,[F,G,B,] | C,[E,G,C] [C,G,][^C,G,] | E,[F,G,B,] G,,[F,G,B,] | %47
 !>![C,C][G,,G,][A,,A,][B,,B,] | [C,C][B,,B,][A,,A,][^G,,^G,] | [A,,A,][D,^F,C] [D,,D,][D,F,C] | %50
 [A,,A,][D,^F,C] [D,,D,][D,F,C] | E,[F,G,B,] G,,[F,G,B,] | E,[F,G,B,] G,,[F,G,B,] | %53
 G,,[E,G,C] G,,[F,G,B,] | [CE] z !>![C,,C,] z ||[K:F] E,/E,E,/ _E,E, | D,/D,D,/ _D,D, | E,F,^F,G, | %58
 C,[E,,E,][D,,D,][C,,C,] |: [F,,F,][F,A,C] [C,,C,][F,A,C] | [F,,F,][F,A,C] [C,,C,][F,A,C] | %61
 A,,[D,^F,C] D,,[D,F,C] | z [D,,D,][E,,E,][^F,,^F,] | [G,,G,][D,G,B,] [D,,D,][D,G,B,] | %64
 [G,,G,][D,G,B,] [D,,D,][D,^F,C] | [G,,G,][D,,D,][^C,,^C,][D,,D,] | %66
 [G,,,G,,][A,,,A,,][B,,,B,,][=B,,,=B,,] | [C,,C,][E,B,C] [C,,C,][E,B,C] | %68
 [G,,G,][E,B,C] [C,,C,][E,B,C] | [G,,G,][C,E,B,] [C,,C,][C,E,B,] | z [C,,C,][D,,D,][E,,E,] | %71
 [F,,F,][F,A,C] [C,,C,][F,A,C] | [D,,D,][F,G,=B,] [G,,G,][F,G,B,] | %73
 [C,,C,][E,_B,C] [E,,E,][E,B,C] | [G,,G,][E,,E,][D,,D,][C,,C,] | [F,,F,][F,A,C] [C,,C,][F,A,C] | %76
 [F,,F,][F,A,C] [C,,C,][F,A,C] | A,,[D,^F,C] D,,[D,F,C] | z [D,,D,][E,,E,][^F,,^F,] | %79
 [G,,G,][D,G,B,] [D,,D,][D,G,B,] | [G,,G,][D,G,B,] [D,,D,][D,^F,C] | %81
 [G,,G,][D,,D,][^C,,^C,][D,,D,] | [G,,G,][D,G,B,] [D,,D,][_D,,_D,] | [C,,C,][F,A,] [C,,C,][F,A,C] | %84
 [A,,,A,,][D,^F,C] [D,,D,][D,F,C] | z [G,,,G,,][A,,,A,,][=B,,,=B,,] | %86
 [C,,C,][^C,,^C,][D,,D,][E,,E,] | [F,,F,] !>!_E,2 D, | _D,C,D,=D, | _E, !>!D,2 _D, | %90
 C, z !>![F,,F,] |: z | x4 | x4 | x2 [B,,B,][B,,B,] | [A,,A,]!>![A,,,A,,]!>![A,,,A,,] z | x4 | x4 | %98
 x2 [B,,B,][B,,B,] | [A,,A,]!>![E,,E,]!>![A,,A,][^G,,^G,] | [A,,A,]!>![E,,E,]!>![A,,A,][^F,,^F,] | %101
 [G,,G,](([E,,E,][F,,F,][^F,,^F,] | [G,,G,]))[E,E][D,D][C,C] |: [F,,F,][F,A,C] [C,,C,][F,A,C] | %104
 [F,,F,][F,A,C] [C,,C,][F,A,C] | [A,,A,][D,^F,C] [D,,D,][D,F,C] | z [D,,D,][E,,E,][^F,,^F,] | %107
 [G,,G,][D,G,B,] [D,,D,][D,G,B,] | [G,,G,][D,G,B,] [D,,D,][D,^F,C] | %109
 [G,,G,][D,,D,][^C,,^C,][D,,D,] | [G,,G,][A,,A,][B,,B,][=B,,=B,] | [C,C][E,B,C] [C,C][E,B,C] | %112
 [G,,G,][E,B,C] [C,C][E,B,C] | [G,,G,][E,B,C] [C,,C,][E,B,C] | z [C,,C,][D,,D,][E,,E,] | %115
 [F,,F,][F,A,C] [C,,C,][F,A,C] | [D,,D,][F,G,=B,] [G,,G,][F,G,B,] | [C,,C,][E,B,C] [E,,E,][E,B,C] | %118
 [G,,G,][E,E][D,D][C,C] | [F,,F,][F,A,C] [C,,C,][F,A,C] | [F,,F,][F,A,C] [C,,C,][F,A,C] | %121
 [A,,A,][D,^F,C] [D,,D,][D,F,C] | z [D,,D,][E,,E,][^F,,^F,] | [G,,G,][D,G,B,] [D,,D,][D,G,B,] | %124
 [G,,G,][D,G,B,] [D,,D,][D,^F,C] | [G,,G,][D,,D,][^C,,^C,][D,,D,] | [G,,G,]2 [D,D][_D,_D] | %127
 [C,C][F,A,C] [C,C][F,A,C] | [A,,A,][D,^F,C] [D,,D,][D,F,C] | z [G,,G,][A,,A,][=B,,=B,] | %130
 [C,C][^C,^C][D,D][E,E] | [F,F] !>![_E,_E]2 [D,D] | [_D,_D][C,C][D,D][=D,=D] | %133
 [_E,_E] !>![D,D]2 [_D,_D] |1 [C,C] z !>![F,,F,]2 :|2 [C,C] z [F,,,F,,] z |] %136
V:3
 x4 | x4 | x4 | x3 | F |: x4 | x4 | x4 | x4 | x4 | x4 | x4 | x4 | x4 | x4 | x4 | x4 | x4 | x4 | %19
 x4 |1 x4 :|2 x4 |: x4 | x4 | x4 | x4 | x4 | x4 | x4 | x4 | x4 | x4 | x4 | x4 | x4 | x4 | x4 |1 %37
 x4 :|2 x3 F || x4 | x4 | x4 | x4 | x4 | x4 | x4 | x4 | x4 | x4 | x4 | x4 | x4 | x4 | x4 | x4 || %55
[K:F] x4 | x4 | x4 | x4 |: x4 | x4 | z _E/D/- D/E/D | x4 | x4 | x4 | z [B,D]z[B,D] | %66
 z [G,D]z[G,D] | x4 | x4 | z D/C/- C/D/C | x4 | x4 | x4 | x4 | x4 | x4 | x4 | z _E/D/- D/E/D | x4 | %79
 x4 | x4 | z [B,D]z[B,D] | x4 | x4 | x4 | z [G,D]z[G,D] | z [B,E]z[B,C] | [A,C] !>![F,C]2 [F,=B,] | %88
 [F,_B,][F,A,][F,B,][F,A,] | [F,C] !>![F,=B,]2 [F,_B,] | [F,A,] x2 |: x | [Ff][Ff] [Ee][Ee] | %93
 [Dd][Dd] [Cc][Cc] | [B,B] z x2 | x4 | [Ff][Ff] [Ee][Ee] | [Dd][Dd] [Cc][Cc] | [B,B] z x2 | x4 | %100
 x4 | x4 | x4 |: x4 | x4 | z _e/d/- d/e/d | x4 | x4 | x4 | z [Bd]z[Bd] | z [Gd]z[Gd] | x4 | x4 | %113
 z d/c/- c/d/c | x4 | x4 | x4 | x4 | x4 | x4 | x4 | z _e/d/- d/e/d | x4 | x4 | x4 | z [Bd]z[Bd] | %126
 z [Bd] x2 | x4 | x4 | z [Gd]z[Gd] | z [Be]z[Bc] | [FAc] !>![Fc]2 [F=B] | [F_B][FA][FB][F=B] | %133
 [Fc] !>![F=B]2 [F_B] |1 [FA] x3 :|2 [FA] x3 |] %136

